build/img/cloud-logo-wrong-4.svg

<svg width="116" height="80" viewBox="0 0 116 80" fill="none" xmlns="http://www.w3.org/2000/svg">
<g clip-path="url(#clip0)">
<path d="M96.0601 31.1835C95.6599 31.1835 95.2528 31.1835 94.8491 31.2201C93.9942 21.3191 85.3981 13.5872 75.2008 13.5872C72.4913 13.5907 69.811 14.1364 67.3239 15.1908C65.5121 10.7051 62.3662 6.85765 58.2953 4.14852C54.2244 1.4394 49.4167 -0.00608118 44.4971 -4.21897e-05C30.9719 -4.21897e-05 19.9673 10.746 19.9673 23.954C19.9673 24.32 19.9673 24.6926 19.9978 25.0686C14.4696 25.8199 9.40336 28.5022 5.7297 32.6227C2.05605 36.7433 0.0216394 42.0254 0.000142672 47.4989C-0.016116 52.0213 1.35758 56.4436 3.94206 60.189C6.52655 63.9343 10.2019 66.829 14.4887 68.4954C16.7819 69.4136 20.8527 69.9359 21.1987 69.1607C21.3378 68.8513 20.9917 68.5286 20.0826 68.1194C17.7193 67.0724 15.4498 65.8327 13.298 64.4132C8.96941 61.4189 6.68638 58.3348 5.53639 56.2821C4.11183 53.5661 3.37638 50.5532 3.39245 47.4989C3.40682 42.5752 5.33067 37.8412 8.77361 34.2576C12.2165 30.674 16.9207 28.5092 21.9314 28.2026C22.1613 28.1883 22.3857 28.1282 22.5911 28.0261C22.7966 27.924 22.9786 27.7819 23.1262 27.6085C23.2738 27.4351 23.3838 27.234 23.4496 27.0176C23.5154 26.8011 23.5356 26.5738 23.5088 26.3495C23.4124 25.5544 23.3626 24.7547 23.3596 23.954C23.3596 12.5825 32.858 3.32691 44.4971 3.32691C49.0233 3.34096 53.4267 4.77161 57.0663 7.41055C60.7059 10.0495 63.3915 13.7589 64.7322 17.9988C64.8061 18.2371 64.9336 18.456 65.1053 18.6395C65.277 18.823 65.4885 18.9663 65.7242 19.0589C65.96 19.1515 66.2139 19.191 66.4673 19.1745C66.7206 19.158 66.967 19.086 67.1882 18.9636C69.6677 17.5992 72.4672 16.8929 75.3102 16.9144C78.1532 16.9359 80.9412 17.6845 83.3989 19.0862C85.8566 20.4879 87.8989 22.4943 89.324 24.907C90.749 27.3198 91.5076 30.0554 91.5246 32.8437V33.04C91.5217 33.2817 91.5725 33.5213 91.6736 33.7418C91.7747 33.9623 91.9236 34.1586 92.1099 34.317C92.2962 34.4753 92.5155 34.5919 92.7525 34.6587C92.9894 34.7254 93.2384 34.7407 93.482 34.7034C94.3361 34.5734 95.1992 34.5077 96.0635 34.5072C100.442 34.4974 104.646 36.1928 107.751 39.2207C110.857 42.2487 112.61 46.3617 112.625 50.6562C112.625 55.9294 109.646 61.3524 105.335 64.0339C103.299 65.3347 103.262 65.5809 98.065 68.1094C97.4815 68.3922 96.837 68.7748 97.0236 69.1707C97.1491 69.4435 97.7325 69.5633 98.5433 69.5633C100.438 69.5104 102.31 69.1483 104.083 68.492C108.275 66.7068 111.711 63.5568 113.808 59.5744C115.906 55.5921 116.538 51.0215 115.597 46.6352C114.656 42.2488 112.199 38.3156 108.643 35.5003C105.086 32.685 100.648 31.1602 96.0771 31.1835H96.0601Z" fill="#231F20"/>
<path d="M24.0202 75.5219V78.087H22.6836V72.2149H24.0202V74.4972H24.7631L26.4592 72.2149H27.9858L25.7231 75.0628L28.1554 78.087H26.6288L24.6443 75.5219H24.0202Z" fill="#2858FF"/>
<path d="M31.2365 78.2301C29.7778 78.2301 28.2852 77.2786 28.2852 75.1626C28.2852 73.0467 29.7778 72.0818 31.2365 72.0818C32.6952 72.0818 34.1878 73.0433 34.1878 75.1626C34.1878 77.2819 32.6952 78.2301 31.2365 78.2301ZM32.8173 75.1626C32.8173 73.8085 32.071 73.1431 31.2365 73.1431C30.402 73.1431 29.6556 73.8085 29.6556 75.1626C29.6556 76.5167 30.402 77.1588 31.2365 77.1588C32.071 77.1588 32.8173 76.52 32.8173 75.1626Z" fill="#2858FF"/>
<path d="M39.3511 75.5884H36.678V78.087H35.3516V72.2149H36.678V74.5604H39.3511V72.2149H40.6741V78.087H39.3511V75.5884Z" fill="#2858FF"/>
<path d="M47.1551 79.4743V78.0869H42.779V79.4743H41.5781V77.0722H41.9174C42.5958 77.0722 42.935 76.2205 43.03 74.078L43.1182 72.2115H47.4841V77.0689H48.3763V79.471L47.1551 79.4743ZM44.2716 73.2396L44.2173 74.2377C44.1257 75.788 43.9052 76.6264 43.4371 77.0756H46.151V73.2396H44.2716Z" fill="#2858FF"/>
<path d="M53.5294 78.087V74.0148L50.6799 78.087H49.3535V72.2149H50.6799V76.3071L53.5294 72.2149H54.8558V78.087H53.5294Z" fill="#2858FF"/>
<path d="M62.3404 79.4743H61.1362V78.087H56.3496V72.2149H57.6692V77.0623H60.1185V72.2149H61.4449V77.0623H62.337L62.3404 79.4743Z" fill="#2858FF"/>
<path d="M67.506 78.087V74.0148L64.6565 78.087H63.3301V72.2149H64.6565V76.3071L67.506 72.2149H68.8324V78.087H67.506Z" fill="#2858FF"/>
<path d="M72.8283 78.2301C71.3696 78.2301 69.877 77.2786 69.877 75.1626C69.877 73.0467 71.3696 72.0818 72.8283 72.0818C74.287 72.0818 75.7796 73.0433 75.7796 75.1626C75.7796 77.2819 74.2903 78.2301 72.8283 78.2301ZM74.4091 75.1626C74.4091 73.8085 73.6628 73.1431 72.8283 73.1431C71.9938 73.1431 71.2474 73.8085 71.2474 75.1626C71.2474 76.5167 71.9938 77.1588 72.8283 77.1588C73.6628 77.1588 74.4091 76.52 74.4091 75.1626Z" fill="#2858FF"/>
<path d="M80.9239 75.5884H78.2541V78.087H76.9277V72.2149H78.2541V74.5604H80.9239V72.2149H82.2503V78.087H80.9239V75.5884Z" fill="#2858FF"/>
<path d="M86.372 77.1488C87.0505 77.1488 87.6068 76.876 87.8409 76.3304H89.1436C88.9712 76.898 88.6107 77.3931 88.1192 77.7371C87.6276 78.0812 87.0331 78.2547 86.4297 78.2301C84.5029 78.2301 83.4004 76.7895 83.4004 75.106C83.4004 73.3394 84.6386 72.0818 86.3415 72.0818C88.1768 72.0818 89.3233 73.5457 89.2148 75.5219H84.7471C84.8353 76.6132 85.6156 77.1488 86.372 77.1488ZM87.8647 74.5737C87.8642 74.3782 87.8243 74.1847 87.7472 74.0043C87.67 73.824 87.5573 73.6604 87.4153 73.5231C87.2734 73.3858 87.1051 73.2774 86.9202 73.2041C86.7353 73.1309 86.5375 73.0944 86.3381 73.0966C85.928 73.0876 85.5308 73.2377 85.2329 73.5143C84.935 73.7909 84.7604 74.1716 84.7471 74.5737H87.8647Z" fill="#2858FF"/>
<path d="M91.6355 73.0001C91.8222 72.7047 92.0862 72.4638 92.4 72.3023C92.7138 72.1408 93.0659 72.0647 93.4199 72.0818C94.8785 72.0818 95.9912 73.2729 95.9912 75.1493C95.9912 77.0257 94.8785 78.23 93.4199 78.23C93.0659 78.2472 92.7138 78.171 92.4 78.0096C92.0862 77.8481 91.8222 77.6072 91.6355 77.3118V80H90.3125V72.2149H91.6355V73.0001ZM94.6105 75.1493C94.6105 73.9183 94.0542 73.1531 93.1281 73.1531C92.2597 73.1531 91.5812 73.8185 91.5812 75.1493C91.5812 76.4801 92.2597 77.1721 93.1281 77.1721C94.0542 77.1854 94.6105 76.3969 94.6105 75.1493Z" fill="#2858FF"/>
<path d="M24.445 56.6049C26.7348 56.6049 28.6853 58.0854 28.6853 61.033C28.6853 63.9807 26.7348 65.4479 24.445 65.4479C22.1551 65.4479 20.2012 63.9807 20.2012 61.033C20.2012 58.0854 22.1518 56.6049 24.445 56.6049ZM24.445 63.1257C25.1743 63.1257 25.734 62.5934 25.734 61.033C25.734 59.4727 25.1743 58.9271 24.445 58.9271C23.7156 58.9271 23.1559 59.4727 23.1559 61.033C23.1559 62.5934 23.7122 63.1257 24.445 63.1257Z" fill="#2858FF"/>
<path d="M29.3887 60.1447V59.8852C29.4735 56.8144 30.4064 54.256 34.1379 53.8966L36.6448 53.6638V56.2255L33.5646 56.5582C32.4316 56.6979 31.5292 57.1205 31.4275 58.6974C31.9159 57.7426 32.9913 57.4332 33.9513 57.4332C35.8273 57.4332 37.5166 58.764 37.5166 61.3158C37.5166 64.0638 35.3965 65.4345 33.378 65.4345C31.2103 65.4478 29.3887 63.8775 29.3887 60.1447ZM34.6027 61.3291C34.6027 59.9417 33.9988 59.5358 33.3543 59.5358C32.7097 59.5358 32.2111 59.9584 32.2111 61.3291C32.2111 62.5634 32.781 63.1256 33.3848 63.1256C33.9886 63.1256 34.6027 62.6399 34.6027 61.3291Z" fill="#2858FF"/>
<path d="M37.9941 62.9693H38.252C38.7812 62.9693 39.2968 62.437 39.4257 59.6623L39.5716 56.8544H46.4749V65.245H43.6118V59.13H42.2074L42.0785 61.0962C41.919 63.4684 41.0167 65.245 38.5369 65.245H37.9941V62.9693Z" fill="#2858FF"/>
<path d="M51.7353 58.5843C51.5771 58.5683 51.4172 58.5838 51.2652 58.6297C51.1131 58.6757 50.9721 58.7513 50.8505 58.8519C50.7289 58.9525 50.6293 59.0761 50.5575 59.2153C50.4857 59.3546 50.4433 59.5066 50.4327 59.6622H47.9665C48.0954 58.0686 49.3879 56.5549 51.9355 56.5549C54.1439 56.5549 55.7179 57.4598 55.6908 60.2678V61.8747C55.6722 62.9998 55.7198 64.1251 55.8333 65.2449H53.1669V64.1536C52.5936 65.0752 51.637 65.4478 50.548 65.4478C49.0419 65.4478 47.7969 64.4331 47.7969 62.936C47.7969 60.9864 49.6423 60.1613 52.8853 59.9417V59.7088C52.8819 58.7706 52.3527 58.5843 51.7353 58.5843ZM50.66 62.5767C50.66 62.936 50.9348 63.3419 51.6064 63.3419C52.3527 63.3419 52.9837 63.0092 52.9837 61.7183V61.4688C51.464 61.5786 50.66 61.8614 50.66 62.5933V62.5767Z" fill="#2858FF"/>
<path d="M61.7395 62.4836C61.1104 62.6303 60.466 62.704 59.8194 62.7032C58.0995 62.7032 57.0547 61.8282 57.0547 59.9584V56.8544H59.9212V59.4727C59.9212 60.4242 60.2197 60.5806 61.0373 60.5806C61.2747 60.5827 61.5112 60.5514 61.7395 60.4874V56.8544H64.606V65.245H61.7395V62.4836Z" fill="#2858FF"/>
<path d="M66.3066 56.8544H69.1731V59.8187H71.4222V56.8544H74.2921V65.245H71.4256V62.0943H69.1765V65.245H66.31L66.3066 56.8544Z" fill="#2858FF"/>
<path d="M76.0098 56.8544H78.8729V59.303H79.8906C82.2957 59.303 83.3134 60.2079 83.3134 62.2341C83.3134 64.4964 82.4111 65.245 80.0636 65.245H76.0098V56.8544ZM79.8058 63.139C80.3926 63.139 80.7658 62.9527 80.7658 62.2341C80.7658 61.5953 80.3926 61.409 79.8193 61.409H78.8729V63.139H79.8058ZM84.2768 56.8544H87.1399V65.245H84.2768V56.8544Z" fill="#2858FF"/>
<path d="M88.8574 56.8543H91.5068V61.5121L94.1596 56.8543H96.809V65.2449H94.1596V60.6737L91.5068 65.2449H88.8574V56.8543ZM90.0617 53.9366H91.7578C91.8291 54.3092 92.1887 54.4988 92.8332 54.4988C93.4777 54.4988 93.8509 54.3092 93.9086 53.9366H95.6047C95.4894 55.091 94.587 55.8862 92.8264 55.8862C91.0658 55.8862 90.1465 55.091 90.0617 53.9366Z" fill="#2858FF"/>
</g>
<defs>
<clipPath id="clip0">
<rect width="116" height="80" fill="white"/>
</clipPath>
</defs>
</svg>

<svg width="116" height="80" viewBox="0 0 116 80" fill="none" xmlns="http://www.w3.org/2000/svg"><g clip-path="url(#clip0)"><path d="M96.06 31.183c-.4 0-.807 0-1.21.037-.856-9.9-9.452-17.633-19.65-17.633-2.709.004-5.389.55-7.876 1.604a24.14 24.14 0 00-9.029-11.042A24.86 24.86 0 0044.497 0c-13.525 0-24.53 10.746-24.53 23.954 0 .366 0 .739.03 1.115-5.527.75-10.594 3.433-14.267 7.554C2.056 36.743.022 42.025 0 47.499a22.195 22.195 0 003.942 12.69 22.866 22.866 0 0010.547 8.306c2.293.919 6.364 1.44 6.71.666.139-.31-.207-.632-1.116-1.042a46.595 46.595 0 01-6.785-3.706c-4.329-2.994-6.612-6.078-7.762-8.13a18.69 18.69 0 01-2.144-8.784c.015-4.924 1.939-9.658 5.382-13.241 3.443-3.584 8.147-5.749 13.157-6.055a1.723 1.723 0 001.195-.595 1.654 1.654 0 00.383-1.259 20.54 20.54 0 01-.15-2.395c0-11.372 9.499-20.627 21.138-20.627a21.535 21.535 0 0112.57 4.084 20.86 20.86 0 017.665 10.588c.074.238.202.457.373.64a1.727 1.727 0 002.083.324 16.593 16.593 0 018.122-2.049 16.59 16.59 0 018.089 2.172 16.187 16.187 0 015.925 5.821 15.79 15.79 0 012.2 7.937v.196a1.668 1.668 0 00.585 1.277 1.708 1.708 0 001.373.386c.854-.13 1.717-.195 2.582-.196 4.378-.01 8.582 1.686 11.687 4.714 3.106 3.028 4.859 7.14 4.874 11.435 0 5.273-2.979 10.696-7.29 13.378-2.036 1.3-2.073 1.547-7.27 4.075-.584.283-1.228.666-1.041 1.062.125.272.709.392 1.52.392a17.356 17.356 0 005.539-1.071c4.192-1.785 7.628-4.935 9.725-8.918a19.127 19.127 0 001.789-12.939c-.941-4.386-3.398-8.32-6.954-11.135a20.089 20.089 0 00-12.566-4.317h-.017z" fill="#231F20"/><path d="M24.02 75.522v2.565h-1.336v-5.872h1.336v2.282h.743l1.696-2.282h1.527l-2.263 2.848 2.432 3.024H26.63l-1.985-2.565h-.624zm7.216 2.708c-1.458 0-2.95-.951-2.95-3.067s1.492-3.081 2.95-3.081c1.46 0 2.952.961 2.952 3.08 0 2.12-1.493 3.068-2.952 3.068zm1.581-3.067c0-1.355-.746-2.02-1.58-2.02-.835 0-1.581.665-1.581 2.02 0 1.354.746 1.996 1.58 1.996.835 0 1.581-.639 1.581-1.996zm6.534.425h-2.673v2.499h-1.326v-5.872h1.326v2.345h2.673v-2.345h1.323v5.872h-1.323v-2.499zm7.804 3.886v-1.387H42.78v1.387h-1.2v-2.402h.338c.679 0 1.018-.852 1.113-2.994l.088-1.867h4.366v4.858h.892v2.402l-1.22.003zm-2.883-6.234l-.055.998c-.091 1.55-.312 2.388-.78 2.838h2.714V73.24h-1.88zm9.258 4.847v-4.072l-2.85 4.072h-1.327v-5.872h1.327v4.092l2.85-4.092h1.326v5.872h-1.327zm8.81 1.387h-1.204v-1.387H56.35v-5.872h1.32v4.847h2.448v-4.847h1.327v4.847h.892l.003 2.412zm5.166-1.387v-4.072l-2.85 4.072H63.33v-5.872h1.326v4.092l2.85-4.092h1.326v5.872h-1.326zm5.322.143c-1.458 0-2.951-.951-2.951-3.067s1.493-3.081 2.951-3.081c1.459 0 2.952.961 2.952 3.08 0 2.12-1.49 3.068-2.952 3.068zm1.581-3.067c0-1.355-.746-2.02-1.58-2.02-.835 0-1.582.665-1.582 2.02 0 1.354.747 1.996 1.581 1.996.835 0 1.581-.639 1.581-1.996zm6.515.425h-2.67v2.499h-1.326v-5.872h1.326v2.345h2.67v-2.345h1.326v5.872h-1.326v-2.499zm5.448 1.561c.678 0 1.235-.273 1.469-.819h1.303a2.664 2.664 0 01-1.025 1.407 2.752 2.752 0 01-1.69.493c-1.926 0-3.029-1.44-3.029-3.124 0-1.767 1.239-3.024 2.941-3.024 1.836 0 2.982 1.464 2.874 3.44h-4.468c.088 1.091.869 1.627 1.625 1.627zm1.493-2.575a1.458 1.458 0 00-.45-1.05 1.514 1.514 0 00-1.077-.427 1.574 1.574 0 00-1.105.417 1.514 1.514 0 00-.486 1.06h3.118zM91.635 73a1.97 1.97 0 01.765-.698 2.017 2.017 0 011.02-.22c1.459 0 2.571 1.19 2.571 3.067 0 1.877-1.112 3.081-2.571 3.081a2.017 2.017 0 01-1.02-.22 1.97 1.97 0 01-.765-.698V80h-1.323v-7.785h1.323V73zm2.975 2.15c0-1.232-.556-1.997-1.482-1.997-.868 0-1.547.665-1.547 1.996s.679 2.023 1.547 2.023c.926.013 1.483-.775 1.483-2.023zM24.445 56.605c2.29 0 4.24 1.48 4.24 4.428s-1.95 4.415-4.24 4.415-4.244-1.467-4.244-4.415 1.95-4.428 4.244-4.428zm0 6.52c.73 0 1.289-.532 1.289-2.092s-.56-2.106-1.289-2.106c-.73 0-1.29.546-1.29 2.106 0 1.56.557 2.093 1.29 2.093zm4.944-2.98v-.26c.085-3.07 1.017-5.629 4.749-5.988l2.507-.233v2.561l-3.08.333c-1.133.14-2.036.563-2.137 2.14.488-.955 1.563-1.265 2.523-1.265 1.876 0 3.566 1.331 3.566 3.883 0 2.748-2.12 4.118-4.139 4.118-2.168.014-3.99-1.556-3.99-5.29zm5.214 1.184c0-1.387-.604-1.793-1.249-1.793-.644 0-1.143.422-1.143 1.793 0 1.234.57 1.797 1.174 1.797s1.218-.486 1.218-1.797zm3.391 1.641h.258c.53 0 1.045-.533 1.174-3.308l.146-2.808h6.903v8.391h-2.863V59.13h-1.405l-.129 1.966c-.159 2.372-1.061 4.149-3.541 4.149h-.543v-2.276zm13.741-4.386a1.207 1.207 0 00-.885.268 1.165 1.165 0 00-.417.81h-2.466c.128-1.593 1.42-3.107 3.968-3.107 2.209 0 3.783.905 3.756 3.713v1.607c-.019 1.125.029 2.25.142 3.37h-2.666v-1.091c-.573.921-1.53 1.294-2.619 1.294-1.506 0-2.751-1.015-2.751-2.512 0-1.95 1.845-2.775 5.088-2.994v-.233c-.003-.938-.532-1.125-1.15-1.125zm-1.075 3.993c0 .359.275.765.946.765.747 0 1.378-.333 1.378-1.624v-.25c-1.52.11-2.324.393-2.324 1.125v-.016zm11.08-.093a8.41 8.41 0 01-1.92.22c-1.72 0-2.765-.876-2.765-2.746v-3.104h2.866v2.619c0 .951.299 1.108 1.116 1.108.238.002.474-.03.703-.094v-3.633h2.866v8.391H61.74v-2.761zm4.567-5.63h2.866v2.965h2.25v-2.965h2.87v8.391h-2.867v-3.15h-2.25v3.15H66.31l-.003-8.39zm9.703 0h2.863v2.449h1.018c2.405 0 3.422.905 3.422 2.931 0 2.262-.902 3.011-3.25 3.011H76.01v-8.39zm3.796 6.285c.587 0 .96-.186.96-.905 0-.639-.373-.825-.947-.825h-.946v1.73h.933zm4.47-6.285h2.864v8.391h-2.863v-8.39zm4.581 0h2.65v4.658l2.653-4.658h2.649v8.39h-2.65v-4.57l-2.652 4.57h-2.65v-8.39zm1.205-2.917h1.696c.071.372.43.562 1.075.562s1.018-.19 1.076-.562h1.696c-.116 1.154-1.018 1.95-2.779 1.95-1.76 0-2.68-.796-2.764-1.95z" fill="#2858FF"/></g><defs><clipPath id="clip0"><path fill="#fff" d="M0 0h116v80H0z"/></clipPath></defs></svg>
